X: 1
T: THE BUFFOON
S: MDT
O: Adderbury
P: Ch.(AB)5.A
B: Morris Ring
Z: 2005 John Chambers <jc@trillian.mit.edu>
M: 2/2
L: 1/8
K: F
P: A
  F3G AGFG | A2c2 c4 | F3G AGFG | A2G2 G4 |
  F3G AGFG | A2c2 c4 | B2A2 G2cB | A2F2 F4 ||
P: B
  d3e d2c2 | d2F2 F4 | d3e  d2c2 | d2F2 F4 |
  d3e d2c2 |B3c B2A2 | c2BA G2c2 | A2F2 F4 ||
P: Alt.bar 7(A):
  | c2BA G2c2 |
